svg/media/fast_forward_line.svg

<?xml version="1.0" encoding="UTF-8"?>
<svg width="24px" height="24px" viewBox="0 0 24 24" version="1.1" xmlns="http://www.w3.org/2000/svg" xmlns:xlink="http://www.w3.org/1999/xlink">
    <title>fast_forward_line</title>
    <g id="页面-1" stroke="none" stroke-width="1" fill="none" fill-rule="evenodd">
        <g id="Media" transform="translate(-288.000000, 0.000000)">
            <g id="fast_forward_line" transform="translate(288.000000, 0.000000)">
                 <path d="M24,0 L24,24 L0,24 L0,0 L24,0 Z M12.5934901,23.257841 L12.5819402,23.2595131 L12.5108777,23.2950439 L12.4918791,23.2987469 L12.4918791,23.2987469 L12.4767152,23.2950439 L12.4056548,23.2595131 C12.3958229,23.2563662 12.3870493,23.2590235 12.3821421,23.2649074 L12.3780323,23.275831 L12.360941,23.7031097 L12.3658947,23.7234994 L12.3769048,23.7357139 L12.4804777,23.8096931 L12.4953491,23.8136134 L12.4953491,23.8136134 L12.5071152,23.8096931 L12.6106902,23.7357139 L12.6232938,23.7196733 L12.6232938,23.7196733 L12.6266527,23.7031097 L12.609561,23.275831 C12.6075724,23.2657013 12.6010112,23.2592993 12.5934901,23.257841 L12.5934901,23.257841 Z M12.8583906,23.1452862 L12.8445485,23.1473072 L12.6598443,23.2396597 L12.6498822,23.2499052 L12.6498822,23.2499052 L12.6471943,23.2611114 L12.6650943,23.6906389 L12.6699349,23.7034178 L12.6699349,23.7034178 L12.678386,23.7104931 L12.8793402,23.8032389 C12.8914285,23.8068999 12.9022333,23.8029875 12.9078286,23.7952264 L12.9118235,23.7811639 L12.8776777,23.1665331 C12.8752882,23.1545897 12.8674102,23.1470016 12.8583906,23.1452862 L12.8583906,23.1452862 Z M12.1430473,23.1473072 C12.1332178,23.1423925 12.1221763,23.1452606 12.1156365,23.1525954 L12.1099173,23.1665331 L12.0757714,23.7811639 C12.0751323,23.7926639 12.0828099,23.8018602 12.0926481,23.8045676 L12.108256,23.8032389 L12.3092106,23.7104931 L12.3186497,23.7024347 L12.3186497,23.7024347 L12.3225043,23.6906389 L12.340401,23.2611114 L12.337245,23.2485176 L12.337245,23.2485176 L12.3277531,23.2396597 L12.1430473,23.1473072 Z" id="MingCute" fill-rule="nonzero"></path>
                <path d="M4.21243,5.6272 C3.43486,5.26809 2.53188,5.83063 2.42907,6.74113 C2.33659,7.56004 2.16016,9.45899 2.16016,12.032 C2.16016,14.6364 2.34093,16.5498 2.43232,17.351 C2.53112,18.2172 3.37509,18.7229 4.14618,18.3685 C4.83792,18.0506 6.43973,17.2694 8.5312,15.9613 C9.60332,15.2907 10.5004,14.6716 11.201,14.1614 C11.2598,15.6762 11.3681,16.7881 11.4323,17.351 C11.5311,18.2172 12.3751,18.7229 13.1462,18.3685 C13.8379,18.0506 15.4397,17.2694 17.5312,15.9613 C19.622,14.6535 21.0472,13.5416 21.6475,13.0513 C22.3171,12.5046 22.334,11.4589 21.69,10.9335 C21.0932,10.4467 19.6485,9.31795 17.5748,8.02092 C15.5255,6.73914 13.9144,5.95138 13.2124,5.6272 C12.4349,5.26809 11.5319,5.83063 11.4291,6.74113 C11.366,7.29964 11.2639,8.36049 11.2053,9.79493 C10.5074,9.287 9.62118,8.67538 8.57481,8.02092 C6.52549,6.73914 4.91436,5.95138 4.21243,5.6272 Z M4.09923,11.9608 C4.09923,10.2702 4.17846,8.88763 4.25582,7.94069 C5.05344,8.34307 6.20034,8.96141 7.54834,9.80453 C8.94282,10.6767 10.0376,11.4674 10.7584,12.0178 C10.0456,12.5603 8.9724,13.332 7.59057,14.1963 C6.20805,15.061 5.0541,15.6822 4.26399,16.0797 C4.18412,15.1308 4.09923,13.7107 4.09923,11.9608 Z M13.1008,12.3709 C13.1818,12.1015 13.1819,11.8127 13.1008,11.5487 C13.1123,10.0451 13.1848,8.80951 13.2558,7.94069 C14.0534,8.34307 15.2003,8.96141 16.5483,9.80453 C17.9428,10.6767 19.0376,11.4674 19.7584,12.0178 C19.0456,12.5603 17.9724,13.332 16.5906,14.1963 C15.208,15.061 14.0541,15.6822 13.264,16.0797 C13.1905,15.2061 13.1127,13.933 13.1008,12.3709 Z" id="形状" fill="#09244B"></path>
            </g>
        </g>
    </g>
</svg>

<svg xmlns="http://www.w3.org/2000/svg" width="24" height="24"><g fill="none" fill-rule="evenodd"><path d="M24 0v24H0V0h24ZM12.593 23.258l-.011.002-.071.035-.02.004-.014-.004-.071-.035c-.01-.004-.019-.001-.024.005l-.004.01-.017.428.005.02.01.013.104.074.015.004.012-.004.104-.074.012-.016.004-.017-.017-.427c-.002-.01-.009-.017-.017-.018Zm.265-.113-.013.002-.185.093-.01.01-.003.011.018.43.005.012.008.007.201.093c.012.004.023 0 .029-.008l.004-.014-.034-.614c-.003-.012-.01-.02-.02-.022Zm-.715.002a.023.023 0 0 0-.027.006l-.006.014-.034.614c0 .012.007.02.017.024l.015-.002.201-.093.01-.008.004-.011.017-.43-.003-.012-.01-.01-.184-.092Z"/><path fill="#09244B" d="M4.212 5.627c-.777-.359-1.68.204-1.783 1.114-.092.819-.269 2.718-.269 5.291 0 2.604.18 4.518.272 5.319.1.866.943 1.372 1.714 1.018.692-.318 2.294-1.1 4.385-2.408 1.072-.67 1.97-1.29 2.67-1.8.059 1.515.167 2.627.231 3.19.1.866.943 1.372 1.714 1.018.692-.318 2.294-1.1 4.385-2.408 2.091-1.308 3.516-2.42 4.117-2.91.67-.546.686-1.592.042-2.117-.597-.487-2.042-1.616-4.115-2.913-2.05-1.282-3.66-2.07-4.363-2.394-.777-.359-1.68.204-1.783 1.114-.063.559-.165 1.62-.224 3.054a45.405 45.405 0 0 0-2.63-1.774c-2.05-1.282-3.66-2.07-4.363-2.394ZM4.1 11.961c0-1.69.08-3.073.157-4.02.797.402 1.944 1.02 3.292 1.864a42.286 42.286 0 0 1 3.21 2.213 42.377 42.377 0 0 1-3.167 2.178 41.585 41.585 0 0 1-3.327 1.884 49.61 49.61 0 0 1-.165-4.12Zm9.002.41a1.42 1.42 0 0 0 0-.822 49.3 49.3 0 0 1 .155-3.608c.797.402 1.944 1.02 3.292 1.864a42.284 42.284 0 0 1 3.21 2.213 42.381 42.381 0 0 1-3.167 2.178 41.6 41.6 0 0 1-3.327 1.884 49.098 49.098 0 0 1-.163-3.71Z"/></g></svg>
